X: 1012
T: Tim Hogan's Jig
B:O'Neill's 1012
Z:Transcribed by Dan G. Petersen, dangp@post6.tele.dk
M:6/8
L:1/8
K:Am
ABA A3|TA2A g3|ABA A2e|edc BA^G|
ABA A3|TA2A g3|de^f gfg|edc BAG:|
e^f^g abc'|bag a2g|e^f^g aga|ba^f ged|
e^f^g abc'|bag gfe|de^f gfg|edc BAG||
(ce).c (Bd).B|(A/B/c)d ecA|(ce).c (Bd).B|(G/A/B)c dBG|
(ce).c (Bd).B|(A/B/c)d ecA|de^f gfg|edc BA^G|]


